!!!COM:	la Rue, Pierre de
!!!CDT:	~1452///-1518/11/20
!!!OPR:	Missa de Sancto Job
!!!ONM:	4
!!!OTL:	Sanctus
!!!AGN:	Mass; Sanctus
!!!SCT:	Rue1013d
!!!SCA:	Rue1013d
!!!voices-OPR:	4
!!!voices:	4
**kern	**kern	**kern	**kern
*Ivox	*Ivox	*Ivox	*Ivox
*I"Bassus	*I"Tenor	*I"Contratenor	*I"Discantus
*I'B	*I'T	*I'Ct	*I'D
*staff4	*staff3	*staff2	*staff1
*>[A,B,C,D,C]	*>[A,B,C,D,C]	*>[A,B,C,D,C]	*>[A,B,C,D,C]
*>A	*>A	*>A	*>A
*clefF4	*clefGv2	*clefGv2	*clefG2
*k[b-]	*k[b-]	*k[b-]	*k[b-]
*M3/1	*M3/1	*M3/1	*M3/1
*met(O)	*met(O)	*met(O)	*met(O)
!!section: Sanctus
!!!OMD: Sanctus
=1-	=1-	=1-	=1-
0.r	0.r	0G	0g
.	.	1G	2.b-\
.	.	.	4a/
=2	=2	=2	=2
0.r	0.r	0B-	2g/
.	.	.	2f/
.	.	.	4g/
.	.	.	4f/
.	.	.	4e-i/
.	.	.	4d/
.	.	1c	2.e-/
.	.	.	4d/
=3	=3	=3	=3
0G	0.r	0d	1B-
.	.	.	2r
.	.	.	1b-
1G	.	1d	.
.	.	.	4a/
.	.	.	4g/
=4	=4	=4	=4
2.F\	0.r	1.f	2.a/
4G\	.	.	4b-\
2A\	.	.	2cc\
2B-\	.	2d\	2.dd\
4A\	.	1e	.
4G\	.	.	4b-\
2A\	.	.	2cc\
=5	=5	=5	=5
2B-\	0.r	1d	2.f/
2BB-/	.	.	.
.	.	.	4g/
2C/	.	2c\	2a/
2BB-/	.	2d\	1b-
1E-i	.	4c\	.
.	.	4B-\	.
.	.	2c\	4a/
.	.	.	4g/
=6	=6	=6	=6
1D	0.r	2d\	1f
.	.	4c\	.
.	.	4B-\	.
2r	.	1A	2r
2D\	.	.	2f/
2E-i\	.	2r	2g/
2D\	.	[2d\	2a/
=7	=7	=7	=7
1G	0.r	2d\]	1b-
.	.	2e\	.
1F	.	2f\	2.a/
.	.	4e\	.
.	.	4d\	4f/
2r	.	2c\	2g/
2BB-/	.	2d\	4f/
.	.	.	4g/
=8	=8	=8	=8
2C/	0.r	2c\	2a/
2BB-/	.	2d\	2.b-\
1E-i	.	1G	.
.	.	.	4a/
.	.	.	1g
1D	.	1A	.
.	.	.	2f#i/
=9	=9	=9	=9
[0.GG	[0.G	2G/	0g
.	.	2d\	.
.	.	2e\	.
.	.	1g	.
.	.	.	1r
.	.	4f\	.
.	.	4e\	.
=10	=10	=10	=10
0.GG]	0G]	1d	1dd
.	.	2r	2dd\
.	.	1g	1b-
.	1G	.	.
.	.	4f\	4a/
.	.	4e\	4g/
=11	=11	=11	=11
0.r	[0.B-	2d\	2f/
.	.	2.G/	1g
.	.	4A/	.
.	.	4B-\	4f/
.	.	4c\	4e/
.	.	2d\	2d/
.	.	2G/	2b-\
=12	=12	=12	=12
0GG	0B-]	2d\	2b-\
.	.	2.G/	2.b-\
.	.	4A/	4a/
.	.	1B-	4g/
.	.	.	4f/
1C	1c	.	1e
.	.	2A/	.
=13	=13	=13	=13
1BB-	[0.d	0B-	1d
2GG/	.	.	1r
4BB-/	.	.	.
4C/	.	.	.
4D\	.	2r	1r
4E\	.	.	.
2F\	.	2A/	.
=14	=14	=14	=14
2BB-/	0d]	2B-\	0.r
2F\	.	2A/	.
2G\	.	1B-	.
1B-	.	.	.
.	1c	1F	.
2A\	.	.	.
=15	=15	=15	=15
1B-	0.d	2r	2r
.	.	1f	1b-
0BB-	.	.	.
.	.	2f\	2b-\
.	.	2f\	1b-
.	.	4e\	.
.	.	4d\	.
=16	=16	=16	=16
2r	1r	2.c\	2a/
1F	.	.	1cc
.	.	4B-\	.
.	1r	2A/	.
2F\	.	4G/	4b-\
.	.	4F/	4a/
1E	1c	2.G/	1g
.	.	4A/	.
=17	=17	=17	=17
2D\	1.d	2B-\	1f
1F	.	1A	.
.	.	.	1r
4E\	2B-\	4G/	.
4D\	.	4F/	.
2E\	1c	2G/	1cc
2F\	.	2A/	.
=18	=18	=18	=18
1BB-	1B-	1B-	1dd
2r	0e-	2G/	2b-\
2C/	.	2A/	2.cc\
1C	.	2G/	.
.	.	.	4b-\
.	.	2c\	4a/
.	.	.	4g/
=19	=19	=19	=19
1D	1.d	2A/	1f
.	.	1B-	.
1BB-	.	.	1b-
.	4c\	4A/	.
.	4B-\	4G/	.
[1F	2d\	1F	2a/
.	2c\	.	[2a/
=20	=20	=20	=20
2F\]	4A/	0.r	2a/]
.	4B-\	.	.
4E-i\	4c\	.	2f/
4D\	4d\	.	.
4E-i\	2c\	.	4g/
4D\	.	.	4f/
4C/	1B-	.	4e/
4BB-/	.	.	4d/
1C	.	.	1e
.	2A/	.	.
=21	=21	=21	=21
0.BB-	0.B-	1f	2.d/
.	.	.	4e/
.	.	2.d\	2f/
.	.	.	2g/
.	.	4e\	.
.	.	2f\	2.d/
.	.	2g\	.
.	.	.	4e/
=22	=22	=22	=22
2r	1r	2d\	2f/
2C/	.	2e\	1g
2E\	1r	2c\	.
2F\	.	2.f\	2f/
1G	1B-	.	1b-
.	.	4e\	.
.	.	2e\	.
=23	=23	=23	=23
1F	0c	1f	1a
2E\	.	2r	2r
2F\	.	2f\	2a/
2C/	1c	2e\	2g/
[2F\	.	[2f\	[2a/
=24	=24	=24	=24
2F\]	0A	4f\]	2a/]
.	.	4e\	.
4E\	.	4c\	4g/
4D\	.	4d\	4f/
2C/	.	2e\	2e/
2D\	.	2.d\	2f/
1BB-	1B-	.	2d/
.	.	4G/	.
.	.	2G/	[2b-\
=25	=25	=25	=25
1.E-	2.G/	2r	4b-\]
.	.	.	4a/
.	.	1G	4g/
.	4A/	.	4f/
.	2B-\	.	2g/
4D\	1c	1A	2e/
4C/	.	.	.
1D	.	.	2.f/
.	2B-\	2F/	.
.	.	.	4g/
=26	=26	=26	=26
2C/	2c\	1G	2e/
1G	2G/	.	1d
.	2B-\	2d\	.
2C/	2c\	2e-i\	1g
1D	1A	1d	.
.	.	.	2f#i/
=27	=27	=27	=27
2r	1G	2r	2g/
1G	.	1d	2.dd\
.	1r	.	.
.	.	.	4cc\
2G\	.	2e\	2b-\
2F\	1d	2f\	2a/
[2G\	.	[2d\	[2b-\
=28	=28	=28	=28
4G\]	2B-\	2d\]	4b-\]
4F\	.	.	4a/
4E\	2.c\	1e	4g/
4D\	.	.	4f/
2C/	.	.	2e/
.	4B-\	.	.
2F\	4A/	2c\	1a
.	4G/	.	.
2D\	2F/	2d\	.
2E-i\	[2B-\	2B-\	4g/
.	.	.	4f/
=29	=29	=29	=29
1C	2B-\]	1c	2.e/
.	2A/	.	.
.	.	.	4f/
2BB-/	2B-\	2d\	2d/
2E-i\	4A/	2c\	1g
.	4G/	.	.
1D	1A	1d	.
.	.	.	2f#i/
=30	=30	=30	=30
0.GGl	0.Gl	0.dl	0.gl
!!LO:LB:i:g=z
=31||	=31||	=31||	=31||
*>B	*>B	*>B	*>B
*clefF4	*clefGv2	*clefGv2	*clefG2
*k[b-]	*k[b-]	*k[b-]	*k[b-]
*M3/1	*M3/1	*M3/1	*M3/1
*met(O)	*met(O)	*met(O)	*met(O)
!!section: Pleni sunt celi
!!!OMD: Pleni sunt celi
0G	0.r	1d	0.r
.	.	2e-i\	.
.	.	1d	.
1G	.	.	.
.	.	4c\	.
.	.	4B-\	.
=32	=32	=32	=32
2F\	0.r	2A/	0.r
1G	.	2.B-\	.
.	.	4A/	.
4F\	.	2G/	.
4E\	.	.	.
2D\	.	2F/	.
[2E-i\	.	[2G/	.
=33	=33	=33	=33
4E-\]	0.r	2G/]	0.r
4D\	.	.	.
2C/	.	2A/	.
2BB-/	.	2B-\	.
2C/	.	1G	.
2E-i\	.	.	.
2F\	.	[2c\	.
=34	=34	=34	=34
1D	0.r	4c\]	0.r
.	.	4B-\	.
.	.	2B-\	.
1C	.	2c\	.
.	.	1e-i	.
1G	.	.	.
.	.	[2d\	.
=35	=35	=35	=35
1F	0.r	4d\]	0.r
.	.	4e\	.
.	.	2f\	.
2.G\	.	2e\	.
.	.	2.d\	.
4A\	.	.	.
2B-\	.	.	.
.	.	4e\	.
2A\	.	2f\	.
=36	=36	=36	=36
2.G\	0.r	4e\	0.r
.	.	4f\	.
.	.	4g\	.
4A\	.	4f\	.
4B-\	.	4e\	.
4A\	.	4d\	.
4G\	.	1d	.
4F\	.	.	.
1E	.	.	.
.	.	2c#i\	.
=37	=37	=37	=37
0D	0.r	1d	0.r
.	.	1r	.
1r	.	1A	.
=38	=38	=38	=38
1.D	0.r	2A/	0.r
.	.	1B-	.
2D\	.	4A/	.
.	.	4G/	.
1D	.	2A/	.
.	.	2B-\	.
=39	=39	=39	=39
2E\	0.r	2G/	0.r
1F	.	2.F/	.
.	.	4G/	.
4E\	.	4A/	.
4D\	.	4B-\	.
2E\	.	2c\	.
2F\	.	2d\	.
=40	=40	=40	=40
2D\	0.r	2B-\	0.r
2.C/	.	1c	.
4D\	.	.	.
4E\	.	4B-\	.
4F\	.	4A/	.
2G\	.	2G/	.
2A\	.	2c\	.
=41	=41	=41	=41
2F\	0.r	2A/	0.r
1G	.	1B-	.
4F\	.	4A/	.
4E\	.	4G/	.
2D\	.	2F/	.
2G\	.	2B-\	.
=42	=42	=42	=42
2E\	0.r	2G/	0.r
1F	.	2.c\	.
.	.	4F/	.
4E\	.	1B-	.
4D\	.	.	.
1C	.	.	.
.	.	2A/	.
=43	=43	=43	=43
0.BB-	0.r	1B-	0.r
.	.	2r	.
.	.	1d	.
.	.	2d\	.
=44	=44	=44	=44
2r	0.r	1d	0.r
1F	.	.	.
.	.	2c\	.
2F\	.	2.d\	.
1F	.	.	.
.	.	4c\	.
.	.	2A/	.
=45	=45	=45	=45
2.G\	0.r	2G/	0.r
.	.	2.B-\	.
4F\	.	.	.
2D\	.	.	.
.	.	4A/	.
2.F\	.	2F/	.
.	.	2.c\	.
4E\	.	.	.
2C/	.	.	.
.	.	4B-\	.
=46	=46	=46	=46
2BB-/	0.r	2G/	0.r
2.F\	.	2.A/	.
4E\	.	4G/	.
2C/	.	2E/	.
2.D\	.	4D/	.
.	.	4E/	.
.	.	4F/	.
4C/	.	4G/	.
=47	=47	=47	=47
2AA/	0.r	2A/	0.r
4GG/	.	2.B-\	.
4AA/	.	.	.
4BB-/	.	.	.
4C/	.	4A/	.
2D\	.	4G/	.
.	.	4F/	.
2.E-\	.	2G/	.
.	.	4c\	.
4D\	.	4B-\	.
=48	=48	=48	=48
4C/	0.r	4A/	0.r
4BB-/	.	4G/	.
2.C/	.	1A	.
4BB-/	.	.	.
4AA/	.	1G	.
4GG/	.	.	.
1AA	.	.	.
.	.	2F#i/	.
=49	=49	=49	=49
0.GGl	0.r	0.Gl	0.r
!!LO:LB:i:g=z
=50||	=50||	=50||	=50||
*>C	*>C	*>C	*>C
*clefF4	*clefGv2	*clefGv2	*clefG2
*k[b-]	*k[b-]	*k[b-]	*k[b-]
*M2/1	*M2/1	*M2/1	*M2/1
*met(C|)	*met(C|)	*met(C|)	*met(C|)
!!section: Osanna
!!!OMD: Osanna
0r	1.G	1d	[0g
.	.	2B-\	.
.	2A/	2c\	.
=51	=51	=51	=51
0r	2B-\	2d\	0g]
.	2c\	2.e-i\	.
.	2G/	.	.
.	.	4d\	.
.	[2c\	4e-i\	.
.	.	4f\	.
=52	=52	=52	=52
0C	2c\]	2g\	0g
.	4B-\	2f\	.
.	4A/	.	.
.	1G	4e\	.
.	.	4d\	.
.	.	2e\	.
=53	=53	=53	=53
0F	1F	[0f	[0a
.	[1c	.	.
=54	=54	=54	=54
1.F	2c\]	0f]	0a]
.	2A/	.	.
.	2c\	.	.
2D\	[2d\	.	.
=55	=55	=55	=55
2F\	2d\]	2r	1a
2A\	2.c\	2c\	.
1G	.	2d\	1b-
.	4B-\	.	.
.	2B-\	2e\	.
=56	=56	=56	=56
1F	1.c	1f	0a
[1F	.	1c	.
.	4B-\	.	.
.	4A/	.	.
=57	=57	=57	=57
2F\]	0A	1.f	1r
4E\	.	.	.
4D\	.	.	.
2D\	.	.	1a
4C/	.	4e\	.
4BB-/	.	4d\	.
=58	=58	=58	=58
[0AA	2r	2.c\	[0cc
.	2A/	.	.
.	.	4d\	.
.	2A/	4e\	.
.	.	4f\	.
.	4G/	[2e\	.
.	4F/	.	.
=59	=59	=59	=59
0AA]	1E	4e\]	0cc]
.	.	4d\	.
.	.	4c\	.
.	.	4B-\	.
.	1A	1c	.
=60	=60	=60	=60
[0D	2.F/	[0d	0a
.	4G/	.	.
.	2A/	.	.
.	[2A/	.	.
=61	=61	=61	=61
0D]	4A/]	0d]	0a
.	4G/	.	.
.	4F#i/	.	.
.	4E/	.	.
.	1F#i	.	.
=62	=62	=62	=62
0GG	0G	1r	1.b-
.	.	[1d	.
.	.	.	4a/
.	.	.	4g/
=63	=63	=63	=63
1r	2r	2d\]	[0f
.	2A/	2c\	.
[1D	2B-\	2d\	.
.	4A/	2e\	.
.	4G/	.	.
=64	=64	=64	=64
2D\]	0F	2f\	0f]
4C/	.	4e\	.
4BB-/	.	4d\	.
2AA/	.	2c\	.
[2BB-/	.	2d\	.
=65	=65	=65	=65
2BB-/]	2r	1c	1r
2AA/	2c\	.	.
2BB-/	2d\	1B-	1b-
2D\	4c\	.	.
.	4B-\	.	.
=66	=66	=66	=66
2.C/	2A/	1r	1cc
.	1B-	.	.
4BB-/	.	.	.
1C	.	1e-	1cc
.	2A/	.	.
=67	=67	=67	=67
[0BB-	0B-	1d	1.dd
.	.	[1f	.
.	.	.	2cc\
=68	=68	=68	=68
0BB-]	0B-	2f\]	2b-\
.	.	2e\	4a/
.	.	.	4g/
.	.	2d\	1f
.	.	4c\	.
.	.	4B-\	.
=69	=69	=69	=69
0F	1.c	1A	0a
.	.	1A	.
.	[2d\	.	.
=70	=70	=70	=70
0G	4d\]	[0d	0b-
.	4c\	.	.
.	1B-	.	.
.	4A/	.	.
.	4G/	.	.
=71	=71	=71	=71
0D	2.F/	0d]	0a
.	4E/	.	.
.	1F	.	.
=72	=72	=72	=72
2r	[0G	2r	1g
2GG/	.	2B-\	.
2.GG/	.	2.B-\	2r
.	.	.	2g/
4AA/	.	4c\	.
=73	=73	=73	=73
2BB-/	0G]	2d\	2.g/
2C/	.	2e-i\	.
.	.	.	4a/
2GG/	.	2d\	2b-\
[2C/	.	[2e-i\	[2cc\
=74	=74	=74	=74
2C/]	0G	2e-\]	2cc\]
2D\	.	2d\	4b-\
.	.	.	4a/
1E-i	.	4c\	1g
.	.	4B-\	.
.	.	2c\	.
=75	=75	=75	=75
0D	[0A	0d	1f
.	.	.	2d/
.	.	.	[2f/
=76	=76	=76	=76
1.F	0A]	0r	4f/]
.	.	.	4g/
.	.	.	4a/
.	.	.	4b-\
.	.	.	2cc\
2D\	.	.	2dd\
=77	=77	=77	=77
1F	1A	1r	2cc\
.	.	.	1a
1G	1B-	1e	.
.	.	.	2g/
=78	=78	=78	=78
1F	0A	1.f	1a
1D	.	.	2r
.	.	4e\	2a/
.	.	4d\	.
=79	=79	=79	=79
0AA	1r	1.c	1.cc
.	1A	.	.
.	.	2d\	4b-\
.	.	.	4a/
=80	=80	=80	=80
0r	[0c	2e\	2g/
.	.	2A/	2a/
.	.	2e\	2g/
.	.	2f\	[2a/
=81	=81	=81	=81
0AA	0c]	2.F/	2a/]
.	.	.	4g/
.	.	4G/	4f/
.	.	[1A	1e
=82	=82	=82	=82
0D	0A	2A/]	0f
.	.	2F/	.
.	.	[1F	.
=83	=83	=83	=83
1.D	0A	1F]	1.f
.	.	1f	.
4C/	.	.	4e/
4BB-/	.	.	4d/
=84	=84	=84	=84
[0BB-	1.B-	[0f	0d
.	4A/	.	.
.	4G/	.	.
=85	=85	=85	=85
0BB-]	[0F	1f]	1r
.	.	1d	1b-
=86	=86	=86	=86
2.BB-/	0F]	2.d\	2b-\
.	.	.	4a/
4C/	.	4e\	4g/
2D\	.	2f\	2f/
2BB-/	.	2d\	2b-\
=87	=87	=87	=87
1C	1r	1e	2a/
.	.	.	2g/
1BB-	1B-	1d	1b-
=88	=88	=88	=88
1F	1c	1r	2a/
.	.	.	4g/
.	.	.	4f/
1E	1c	1G	1g
=89	=89	=89	=89
[0D	1.d	2A/	0f
.	.	1B-	.
.	2c\	2c\	.
=90	=90	=90	=90
0D]	2B-\	0d	2r
.	4A/	.	2f/
.	4G/	.	.
.	1F	.	2a/
.	.	.	2b-\
=91	=91	=91	=91
2r	0A	0c	2.cc\
1F	.	.	.
.	.	.	4b-\
.	.	.	2a/
2E\	.	.	2g/
=92	=92	=92	=92
2D\	0B-	0d	2f/
2C/	.	.	2e/
2BB-/	.	.	2d/
2GG/	.	.	[2g/
=93	=93	=93	=93
1D	0A	[0dl	2g/]
.	.	.	4f#i/
.	.	.	4e/
1D	.	.	1f#i
=94	=94	=94	=94
0GGl	0Gl	0d]	0gl
!!LO:LB:i:g=z
!!LO:TX:rj:i:Y=40:t=fine
=95||	=95||	=95||	=95||
*>D	*>D	*>D	*>D
*clefF4	*clefGv2	*clefGv2	*clefG2
*k[b-]	*k[b-]	*k[b-]	*k[b-]
*M2/1	*M2/1	*M2/1	*M2/1
*met(C|)	*met(C|)	*met(C|)	*met(C|)
!!section: Benedictus
!!!OMD: Benedictus
0r	1.d	0r	0r
.	4c\	.	.
.	4B-\	.	.
=96	=96	=96	=96
0r	2c\	0r	1r
.	4B-\	.	.
.	4A/	.	.
.	1G	.	1g
=97	=97	=97	=97
0r	0F	0r	1.a
.	.	.	4g/
.	.	.	4f/
=98	=98	=98	=98
0r	1r	0r	2g/
.	.	.	2e/
.	1B-	.	1d
=99	=99	=99	=99
0r	1c	0r	0c
.	1e-i	.	.
=100	=100	=100	=100
0r	0d	0r	1r
.	.	.	1f
=101	=101	=101	=101
0r	1r	0r	1g
.	1B-	.	1b-
=102	=102	=102	=102
0r	2c\	0r	0a
.	1d	.	.
.	4c\	.	.
.	4B-\	.	.
=103	=103	=103	=103
0r	4c\	0r	1r
.	4B-\	.	.
.	4A/	.	.
.	4G/	.	.
.	1A	.	1f
=104	=104	=104	=104
0r	2G/	0r	2g/
.	1c	.	1a
.	4B-\	.	4g/
.	4A/	.	4f/
=105	=105	=105	=105
0r	4B-\	0r	4g/
.	4A/	.	4f/
.	1d	.	4e/
.	.	.	4d/
.	.	.	1e
.	2c#i\	.	.
=106	=106	=106	=106
0r	0d	0r	2d/
.	.	.	2f/
.	.	.	2g/
.	.	.	[2a/
=107	=107	=107	=107
0r	2r	0r	2a/]
.	2G/	.	1b-
.	2B-\	.	.
.	2c\	.	4a/
.	.	.	4g/
=108	=108	=108	=108
0r	2d\	0r	2.f/
.	2D/	.	.
.	.	.	4g/
.	2F/	.	2a/
.	2G/	.	[2b-\
=109	=109	=109	=109
0r	1A	0r	2b-\]
.	.	.	2.a/
.	1B-	.	.
.	.	.	4g/
.	.	.	2g/
=110	=110	=110	=110
0r	0A	0r	1a
.	.	.	2r
.	.	.	[2e/
=111	=111	=111	=111
0r	1r	0r	4e/]
.	.	.	4f/
.	.	.	4g/
.	.	.	4e/
.	2r	.	2f/
.	[2A/	.	4e/
.	.	.	4d/
=112	=112	=112	=112
0r	4A/]	0r	1e
.	4B-\	.	.
.	4c\	.	.
.	4A/	.	.
.	2B-\	.	2d/
.	4A/	.	2g/
.	4G/	.	.
=113	=113	=113	=113
0r	1A	0r	2f/
.	.	.	4e/
.	.	.	4d/
.	2G/	.	2e/
.	2c\	.	[2a/
=114	=114	=114	=114
0r	2B-\	0r	2a/]
.	4A/	.	2.g/
.	4G/	.	.
.	1A	.	.
.	.	.	4f#i/
.	.	.	2f#i/
=115	=115	=115	=115
0r	1G	0r	2g/
.	.	.	2b-\
.	2r	.	2b-\
.	2d\	.	2b-\
=116	=116	=116	=116
0r	2d\	0r	2a/
.	1d	.	2.b-\
.	.	.	4a/
.	2c\	.	[2cc\
=117	=117	=117	=117
0r	4e\	0r	4cc\]
.	4d\	.	4b-\
.	4c\	.	4a/
.	4B-\	.	4g/
.	4A/	.	4f/
.	4G/	.	4e/
.	[2c\	.	[2a/
=118	=118	=118	=118
0r	4c\]	0r	2a/]
.	4B-\	.	.
.	4A/	.	2.g/
.	4G/	.	.
.	1A	.	.
.	.	.	4f#i/
.	.	.	2f#i/
=119	=119	=119	=119
0r	0Gl	0r	0gl
!!LO:TX:i:Y=40:rj:t=Osanna ut supra
=||	=||	=||	=||
*-	*-	*-	*-
!!!RDF**kern: l=long note in original notation
!!!RDF**kern: i=editorial accidental
!!!RDF**kern: V=start of tuplet marker
!!!RDF**kern: Z=end of tuplet marker
!!!ENC:	Megan K. Eagen 2013/01/20
!!!END:	2013/01/20/
!!!EED:	Jesse Rodin
!!!EEV:	2013/08/04/
!!!ONB:	Translated from MusicXML and edited on 2013/08/04/ by Craig Sapp
!!muse2ps: T^@{OPR}^u^@{ONM}{. }@{OTL}^C^@{COM}^i2I150v85,85,85,150Q8c90
